app/assets/images/heroicons/solid/chevron-double-left.svg

<svg width="24" height="24" viewBox="0 0 24 24" fill="none" xmlns="http://www.w3.org/2000/svg">
<path fill-rule="evenodd" clip-rule="evenodd" d="M10.7197 11.4697C10.4268 11.7626 10.4268 12.2374 10.7197 12.5303L18.2197 20.0303C18.5126 20.3232 18.9874 20.3232 19.2803 20.0303C19.5732 19.7374 19.5732 19.2626 19.2803 18.9697L12.3107 12L19.2803 5.03033C19.5732 4.73744 19.5732 4.26256 19.2803 3.96967C18.9874 3.67678 18.5126 3.67678 18.2197 3.96967L10.7197 11.4697Z" fill="#0F172A"/>
<path fill-rule="evenodd" clip-rule="evenodd" d="M4.71967 11.4697C4.42678 11.7626 4.42678 12.2374 4.71967 12.5303L12.2197 20.0303C12.5126 20.3232 12.9874 20.3232 13.2803 20.0303C13.5732 19.7374 13.5732 19.2626 13.2803 18.9697L6.31066 12L13.2803 5.03033C13.5732 4.73744 13.5732 4.26256 13.2803 3.96967C12.9874 3.67678 12.5126 3.67678 12.2197 3.96967L4.71967 11.4697Z" fill="#0F172A"/>
</svg>

<svg xmlns="http://www.w3.org/2000/svg" viewBox="0 0 24 24" fill="currentColor" aria-hidden="true" data-slot="icon">
  <path fill-rule="evenodd" d="M10.72 11.47a.75.75 0 0 0 0 1.06l7.5 7.5a.75.75 0 1 0 1.06-1.06L12.31 12l6.97-6.97a.75.75 0 0 0-1.06-1.06l-7.5 7.5Z" clip-rule="evenodd"/>
  <path fill-rule="evenodd" d="M4.72 11.47a.75.75 0 0 0 0 1.06l7.5 7.5a.75.75 0 1 0 1.06-1.06L6.31 12l6.97-6.97a.75.75 0 0 0-1.06-1.06l-7.5 7.5Z" clip-rule="evenodd"/>
</svg>
